X:486
T:Jamaica
M:4/4
L:1/8
Q:1/8=150
K:G
G2 B2 B2 cd|e2 d2 e4|d2 B2 B2 AG|A4 G4|
G2 B2 B2 cd|e2 d2 e4|d2 B2 B2 AG|A4 G4||
g2 g2 f2 ed|e2 e2 d4|g2 g2 fg a2|e4 d4|
g2 g2 f2 ed|e2 e2 d2 B2|cd e2 d2 cB|A4 G4||
